X:1
T:Title
%%score { ( 1 2 5 ) | ( 3 4 ) }
L:1/8
Q:1/4=84
M:6/8
K:Eb
V:1 treble nm="Grand Piano"
V:2 treble 
V:5 treble 
V:3 bass 
V:4 bass 
V:1
 G3 .F3 | .G6[K:bass][K:treble] | [B,GB]cB z E_G | G6[K:bass][K:treble] | z AA z Dc | %5
w: William~M.~Runyan *|||||
 .B6[K:bass][K:treble] | [G,CE]DE [=A,C]2 [EG] | [F,F]-[F,-F-d][F,F-c] [F-B][F-A][FG] | G3 .F3 | %9
w: ||||
 .G6[K:bass][K:treble] | z3 .G3 | z =BB B2 B | [Ee]3 .[B,B]3 | %13
w: ||||
 [CEAc][B,EGB][G,B,EG] [G,CE][B,FA][B,EG] | [G,B,EG]3[K:bass] [A,DF]3 | [G,B,E]6 | %16
w: |||
 [EGe][EGd][EGc] [EGe][EGd][EGc] | .[FGBe]2 [FABd] [FABd]3 | [DAd][DAc][DAB] [DAd][DAc][DAB] | %19
w: |||
 [EGc]2 [EGB] [EGB]3 | [B,EG][B,E_G][B,E=G] [B,DA][B,DG][B,DA] | z3 [Cc]3 | %22
w: |||
 [CEAc][C=EBc][CFAc] [C_EAc][C=EBc][CFAc] | z [FB][E=Ae] z [_Ad][Ad] | %24
w: ||
 [EGe][EGd][EGc] [EGe][EGd][EGc] | [FAe]2 [FAd] [FAd]3 | [DAd][DAc][DAB] [DAd][DAc][DAB] | %27
w: |||
 z3 [EGB]3[K:bass] | G_G=G AGA | Bc[Ad] [Be][cf][c_g] | g3 z3 | [EGe]6 |] %32
w: |||||
V:2
 z EE z B,E | z EE[K:bass] z[K:treble] GA | z3 .G3 | z EE[K:bass] z E[K:treble]E | B3 .F3 | %5
 z GG[K:bass] z[K:treble] GF | x6 | .[B,D]3 z3 | z EE z B,E | z EE[K:bass] z[K:treble] GA | %10
 [B,GB]cB z B,E | [Ee]6 | z BB z [EG][B,EG] | x6 | z[K:bass] C,D, z C,D, | E,2 B,, z3 | x6 | x6 | %18
 x6 | x6 | x6 | [B,EB][CE=A][B,EB] z _AA | x6 | .[Dd]3 [Ff]3 | x6 | x6 | x6 | %27
 [EGc]2 [EGB] z2[K:bass] B,, | x6 | x6 | z DC [Bg]2 [DAf] | x6 |] %32
V:3
 z [G,B,][G,B,] z G,[G,B,] | z [G,B,][G,B,] z[K:treble] [G,E][A,F] | %2
 z[K:treble] [CA][B,G][K:bass] z G,[_G,E] | z [G,B,][G,B,] z [G,B,][G,B,] | z [B,D][B,D] z B,[DA] | %5
 z [B,E][B,E] z [G,B,E][A,D] | z [G,C][G,C] z2 =A, | z[K:treble] EE DCB, | %8
 z [G,B,][G,B,] z G,[G,B,] | z [G,B,][G,B,] z[K:treble] [G,B,E][A,F] | %10
 z[K:treble] [CA][B,G][K:bass] z G,[G,B,] | z[K:treble] _GG G2 G | %12
 z[K:treble] GG[K:bass] [B,,,B,,]2 [E,,E,] | [A,,A,][G,,G,][E,,E,] [C,,C,][D,,D,][E,,E,] | %14
 [B,,,B,,]C,,D,, [B,,,B,,]C,,D,, | E,,2 B,,, E,,3 | [E,,E,]2 [B,,,B,,] [E,,E,]2 [B,,,B,,] | %17
 [F,,F,]2 [B,,,B,,] [F,,F,]2 [B,,,B,,] | [F,,F,]2 [B,,,B,,] [F,,F,]2 [B,,,B,,] | %19
 [E,,E,]2 [B,,,B,,] [E,,E,]2 [B,,,B,,] | [E,,E,]2 [E,,E,] [F,,F,]2 [F,,F,] | %21
 [G,,G,]2 [G,,G,] z EE | [A,,A,][G,,G,][F,,F,] [A,,A,][G,,G,][F,,F,] | %23
 [B,,,B,,]2 [F,,F,] [B,,B,][F,,F,][B,,,B,,] | [E,,E,]2 [B,,,B,,] [E,,E,]2 [B,,,B,,] | %25
 [F,,F,]2 [B,,,B,,] [F,,F,]2 [B,,,B,,] | [F,,F,]2 [B,,,B,,] [F,,F,]2 [B,,,B,,] | %27
 [E,,E,]2 [B,,,B,,] [E,,E,]2 B,,, | [E,B,E][E,=A,E][E,B,E] [F,B,D][F,B,D][F,B,D] | %29
 [G,B,E][A,E][F,B,] [G,B,][K:treble][A,E][=A,E] | .[B,EB]3[K:bass] B,CB,, | E,6 |] %32
V:4
 [E,,E,]3 [B,,,B,,]3 | [E,,F,]3 B,,,3[K:treble] | [E,,F,]3[K:treble][K:bass] [B,,,B,,]3 | %3
 [E,,F,]3 B,,,3 | [F,,F,]3 [B,,,B,,]3 | [E,,E,]3 B,,,3 | [C,,C,]3 [F,,F,]3 | B,,3[K:treble] z3 | %8
 [E,,E,]3 [B,,,B,,]3 | [E,,E,]3 B,,,3[K:treble] | [E,,E,]3[K:treble][K:bass] [B,,,B,,]3 | %11
 [=B,,,=B,,]6[K:treble] | [B,,,B,,]3[K:treble][K:bass] z3 | x6 | x6 | x6 | x6 | x6 | x6 | x6 | x6 | %21
 z3 [A,,A,]3 | x6 | x6 | x6 | x6 | x6 | x6 | x6 | x4[K:treble] x2 | z3[K:bass] .B,,3 | x6 |] %32
V:5
 x6 | z3[K:bass] B,,3[K:treble] | x6 | z3[K:bass] B,,3[K:treble] | x6 | z3[K:bass] B,,3[K:treble] | %6
 x6 | x6 | x6 | z3[K:bass] B,,3[K:treble] | x6 | x6 | x6 | x6 | x[K:bass] x5 | x6 | x6 | x6 | x6 | %19
 x6 | x6 | x6 | x6 | x6 | x6 | x6 | x6 | x5[K:bass] x | x6 | x6 | x6 | x6 |] %32

